packages/foundations/assets/icons/functional/images/technology/database.svg

<svg xmlns="http://www.w3.org/2000/svg" width="32" height="32" fill="none"><path fill="#1A1C1F" fill-rule="evenodd" d="M4.56 3.042a2.99 2.99 0 0 0-2.257 1.663c-.296.63-.303.713-.302 3.348v2.427l.145.43c.08.236.242.567.36.736.118.168.214.328.214.356s-.08.155-.178.284c-.251.328-.446.85-.517 1.381-.039.299-.053 1.2-.04 2.634l.02 2.179.143.43c.079.236.24.567.358.736.118.168.214.328.214.356s-.08.155-.178.284c-.251.328-.446.85-.517 1.381-.04.302-.053 1.187-.038 2.634.024 2.351.032 2.422.334 3.038.325.665 1.035 1.275 1.775 1.526l.357.122 11.374.014c12.467.015 11.76.032 12.461-.298.724-.342 1.297-.997 1.565-1.792l.145-.431.001-2.48.001-2.48-.13-.398a3.7 3.7 0 0 0-.36-.74c-.127-.189-.23-.363-.23-.387s.096-.181.214-.349c.118-.169.279-.5.357-.736l.143-.43.021-2.142c.028-2.815-.027-3.241-.507-3.958-.125-.188-.228-.361-.228-.385s.096-.181.214-.349c.118-.169.28-.5.359-.736l.145-.43.001-2.427c.001-2.632-.007-2.719-.3-3.343-.328-.699-1.03-1.316-1.795-1.575l-.357-.122-11.334-.007c-6.233-.004-11.477.012-11.653.036m22.893 2.084c.141.069.291.2.377.33l.143.216v4.656l-.143.216c-.086.13-.236.261-.377.33l-.233.113H16c-11.175 0-11.221-.001-11.444-.109a1.1 1.1 0 0 1-.377-.329l-.152-.22V5.68l.131-.187c.072-.102.168-.218.213-.256.27-.228-.207-.219 11.625-.222l11.224-.002zM6.792 7.038c-.666.158-.981.877-.64 1.459.159.273.311.384.641.472.433.116.907-.126 1.107-.567.334-.735-.327-1.55-1.108-1.364m13.883.025c-.385.14-.673.541-.673.937 0 .412.329.843.734.962q.197.057 2.357.041c2.071-.016 2.169-.021 2.374-.128.129-.068.273-.208.366-.357a.96.96 0 0 0-.339-1.363l-.241-.142-2.186-.012c-1.763-.01-2.227.002-2.392.062m6.775 6.054c.14.064.279.185.373.328l.15.227v4.657l-.152.22c-.087.126-.25.267-.377.329-.223.108-.269.109-11.444.109s-11.221-.001-11.444-.109a1.1 1.1 0 0 1-.377-.329l-.152-.22v-4.657l.142-.215c.083-.126.238-.262.373-.329l.231-.115L16 13.015c10.914.001 11.233.004 11.45.102M6.792 15.038a.992.992 0 0 0-.666 1.428c.134.262.334.414.662.502.744.199 1.431-.608 1.129-1.329-.193-.464-.658-.712-1.125-.601m13.883.025c-.385.14-.673.541-.673.937 0 .412.329.843.734.962q.197.057 2.357.041c2.071-.016 2.169-.021 2.374-.128.129-.068.273-.208.366-.357a.96.96 0 0 0-.339-1.363l-.241-.142-2.186-.012c-1.763-.01-2.227.002-2.392.062m6.778 6.063c.141.069.291.2.377.33l.143.216v4.656l-.143.216c-.086.13-.236.261-.377.33l-.233.113H15.981c-11.17 0-11.24-.001-11.45-.108a1.1 1.1 0 0 1-.358-.33l-.146-.221v-4.656l.142-.215c.083-.126.238-.262.373-.329l.231-.115H27.22zM6.792 23.038a.992.992 0 0 0-.666 1.428c.134.262.334.414.662.502.744.199 1.431-.608 1.129-1.329-.193-.464-.658-.712-1.125-.601m13.883.025c-.385.14-.673.541-.673.937 0 .229.153.573.325.731.3.276.364.282 2.66.282 2.328 0 2.363-.004 2.684-.309a.956.956 0 0 0-.177-1.549l-.241-.142-2.186-.012c-1.763-.01-2.227.002-2.392.062"/></svg>

<svg width="32" height="32" viewBox="0 0 32 32" fill="none" xmlns="http://www.w3.org/2000/svg"><path d="M4.560 3.042 C 3.601 3.170,2.719 3.820,2.303 4.705 C 2.007 5.335,2.000 5.418,2.001 8.053 L 2.001 10.480 2.146 10.910 C 2.226 11.146,2.388 11.477,2.506 11.646 C 2.624 11.814,2.720 11.974,2.720 12.002 C 2.720 12.030,2.640 12.157,2.542 12.286 C 2.291 12.614,2.096 13.136,2.025 13.667 C 1.986 13.966,1.972 14.867,1.985 16.301 L 2.005 18.480 2.148 18.910 C 2.227 19.146,2.388 19.477,2.506 19.646 C 2.624 19.814,2.720 19.974,2.720 20.002 C 2.720 20.030,2.640 20.157,2.542 20.286 C 2.291 20.614,2.096 21.136,2.025 21.667 C 1.985 21.969,1.972 22.854,1.987 24.301 C 2.011 26.652,2.019 26.723,2.321 27.339 C 2.646 28.004,3.356 28.614,4.096 28.865 L 4.453 28.987 15.827 29.001 C 28.294 29.016,27.587 29.033,28.288 28.703 C 29.012 28.361,29.585 27.706,29.853 26.911 L 29.998 26.480 29.999 24.000 L 30.000 21.520 29.870 21.122 C 29.798 20.903,29.636 20.570,29.510 20.382 C 29.383 20.193,29.280 20.019,29.280 19.995 C 29.280 19.971,29.376 19.814,29.494 19.646 C 29.612 19.477,29.773 19.146,29.851 18.910 L 29.994 18.480 30.015 16.338 C 30.043 13.523,29.988 13.097,29.508 12.380 C 29.383 12.192,29.280 12.019,29.280 11.995 C 29.280 11.971,29.376 11.814,29.494 11.646 C 29.612 11.477,29.774 11.146,29.853 10.910 L 29.998 10.480 29.999 8.053 C 30.000 5.421,29.992 5.334,29.699 4.710 C 29.371 4.011,28.669 3.394,27.904 3.135 L 27.547 3.013 16.213 3.006 C 9.980 3.002,4.736 3.018,4.560 3.042 M27.453 5.126 C 27.594 5.195,27.744 5.326,27.830 5.456 L 27.973 5.672 27.973 8.000 L 27.973 10.328 27.830 10.544 C 27.744 10.674,27.594 10.805,27.453 10.874 L 27.220 10.987 16.000 10.987 C 4.825 10.987,4.779 10.986,4.556 10.878 C 4.429 10.816,4.266 10.675,4.179 10.549 L 4.027 10.329 4.027 8.005 L 4.027 5.680 4.158 5.493 C 4.230 5.391,4.326 5.275,4.371 5.237 C 4.641 5.009,4.164 5.018,15.996 5.015 L 27.220 5.013 27.453 5.126 M6.792 7.038 C 6.126 7.196,5.811 7.915,6.152 8.497 C 6.311 8.770,6.463 8.881,6.793 8.969 C 7.226 9.085,7.700 8.843,7.900 8.402 C 8.234 7.667,7.573 6.852,6.792 7.038 M20.675 7.063 C 20.290 7.203,20.002 7.604,20.002 8.000 C 20.002 8.412,20.331 8.843,20.736 8.962 C 20.868 9.000,21.652 9.014,23.093 9.003 C 25.164 8.987,25.262 8.982,25.467 8.875 C 25.596 8.807,25.740 8.667,25.833 8.518 C 26.132 8.036,25.984 7.443,25.494 7.155 L 25.253 7.013 23.067 7.001 C 21.304 6.991,20.840 7.003,20.675 7.063 M27.450 13.117 C 27.590 13.181,27.729 13.302,27.823 13.445 L 27.973 13.672 27.973 16.001 L 27.973 18.329 27.821 18.549 C 27.734 18.675,27.571 18.816,27.444 18.878 C 27.221 18.986,27.175 18.987,16.000 18.987 C 4.825 18.987,4.779 18.986,4.556 18.878 C 4.429 18.816,4.266 18.675,4.179 18.549 L 4.027 18.329 4.027 16.001 L 4.027 13.672 4.169 13.457 C 4.252 13.331,4.407 13.195,4.542 13.128 L 4.773 13.013 16.000 13.015 C 26.914 13.016,27.233 13.019,27.450 13.117 M6.792 15.038 C 6.148 15.191,5.827 15.879,6.126 16.466 C 6.260 16.728,6.460 16.880,6.788 16.968 C 7.532 17.167,8.219 16.360,7.917 15.639 C 7.724 15.175,7.259 14.927,6.792 15.038 M20.675 15.063 C 20.290 15.203,20.002 15.604,20.002 16.000 C 20.002 16.412,20.331 16.843,20.736 16.962 C 20.868 17.000,21.652 17.014,23.093 17.003 C 25.164 16.987,25.262 16.982,25.467 16.875 C 25.596 16.807,25.740 16.667,25.833 16.518 C 26.132 16.036,25.984 15.443,25.494 15.155 L 25.253 15.013 23.067 15.001 C 21.304 14.991,20.840 15.003,20.675 15.063 M27.453 21.126 C 27.594 21.195,27.744 21.326,27.830 21.456 L 27.973 21.672 27.973 24.000 L 27.973 26.328 27.830 26.544 C 27.744 26.674,27.594 26.805,27.453 26.874 L 27.220 26.987 15.981 26.987 C 4.811 26.987,4.741 26.986,4.531 26.879 C 4.415 26.820,4.254 26.671,4.173 26.549 L 4.027 26.328 4.027 24.000 L 4.027 21.672 4.169 21.457 C 4.252 21.331,4.407 21.195,4.542 21.128 L 4.773 21.013 15.996 21.013 L 27.220 21.013 27.453 21.126 M6.792 23.038 C 6.148 23.191,5.827 23.879,6.126 24.466 C 6.260 24.728,6.460 24.880,6.788 24.968 C 7.532 25.167,8.219 24.360,7.917 23.639 C 7.724 23.175,7.259 22.927,6.792 23.038 M20.675 23.063 C 20.290 23.203,20.002 23.604,20.002 24.000 C 20.002 24.229,20.155 24.573,20.327 24.731 C 20.627 25.007,20.691 25.013,22.987 25.013 C 25.315 25.013,25.350 25.009,25.671 24.704 C 26.158 24.241,26.073 23.495,25.494 23.155 L 25.253 23.013 23.067 23.001 C 21.304 22.991,20.840 23.003,20.675 23.063 " fill="#1A1C1F" stroke="none" fill-rule="evenodd"></path></svg>
